docs/svg/twitter_icon.svg

<svg width="35" height="30" viewBox="0 0 35 30" version="1.1" xmlns="http://www.w3.org/2000/svg" xmlns:xlink="http://www.w3.org/1999/xlink">
<title>twitter_icon</title>
<desc>Created using Figma</desc>
<g id="Canvas" transform="translate(-4349 -4935)">
<g id="twitter_icon">
<g id="Group">
<g id="Group">
<g id="Vector">
<use xlink:href="#path0_fill" transform="translate(4349 4935.65)" fill="#FFFFFF"/>
</g>
</g>
</g>
</g>
</g>
<defs>
<path id="path0_fill" d="M 34.9321 3.41637C 33.6464 3.99611 32.2668 4.38929 30.8174 4.56482C 32.2974 3.66294 33.4303 2.23243 33.9672 0.533101C 32.579 1.3683 31.0466 1.97476 29.4138 2.30352C 28.1063 0.884107 26.2465 1.09901e-07 24.1837 1.09901e-07C 20.2262 1.09901e-07 17.0174 3.26535 17.0174 7.29038C 17.0174 7.86124 17.0807 8.41879 17.2029 8.95195C 11.2481 8.64759 5.96786 5.74434 2.43383 1.33275C 1.81607 2.4079 1.46464 3.66067 1.46464 4.99795C 1.46464 7.52807 2.7307 9.76049 4.65162 11.0666C 3.47723 11.0266 2.3727 10.6979 1.40573 10.1514L 1.40573 10.2425C 1.40573 13.7744 3.87672 16.7221 7.15315 17.3929C 6.55286 17.5573 5.91986 17.6484 5.26499 17.6484C 4.80226 17.6484 4.35476 17.6017 3.916 17.5129C 4.8284 20.4117 7.47405 22.5197 10.6086 22.5775C 8.15728 24.5323 5.06636 25.694 1.70916 25.694C 1.13073 25.694 0.560969 25.6585 2.71143e-12 25.5941C 3.17169 27.6666 6.93711 28.875 10.9841 28.875C 24.1663 28.875 31.3719 17.7639 31.3719 8.12785L 31.3479 7.1838C 32.7558 6.16191 33.9738 4.87801 34.9321 3.41637Z"/>
</defs>
</svg>

<svg width="35" height="30" viewBox="0 0 35 30" xmlns="http://www.w3.org/2000/svg" xmlns:xlink="http://www.w3.org/1999/xlink"><title>twitter_icon</title><desc>Created using Figma</desc><use xlink:href="#a" transform="translate(0 .65)" fill="#FFF"/><defs><path id="a" d="M34.932 3.416c-1.286.58-2.665.973-4.115 1.149a7.301 7.301 0 0 0 3.15-4.032 14.295 14.295 0 0 1-4.553 1.77A7.089 7.089 0 0 0 24.184 0c-3.958 0-7.167 3.265-7.167 7.29 0 .571.064 1.129.186 1.662-5.955-.304-11.235-3.208-14.77-7.62a7.335 7.335 0 0 0-.968 3.666 7.323 7.323 0 0 0 3.187 6.069 7.072 7.072 0 0 1-3.246-.916v.091c0 3.532 2.47 6.48 5.747 7.15a7.14 7.14 0 0 1-1.888.256c-.463 0-.91-.046-1.349-.135.912 2.899 3.558 5.007 6.693 5.064a14.22 14.22 0 0 1-8.9 3.117c-.578 0-1.148-.035-1.709-.1a20.002 20.002 0 0 0 10.984 3.281c13.182 0 20.388-11.111 20.388-20.747l-.024-.944a14.451 14.451 0 0 0 3.584-3.768z"/></defs></svg>
